img/curser.svg

<svg width="65" height="65" viewBox="0 0 65 65" fill="none" xmlns="http://www.w3.org/2000/svg">
<path d="M51.0878 61.75L35.0892 45.7514L30.2018 50.6347C25.2048 55.6398 22.7022 58.1384 20.0127 57.5493C17.3233 56.9602 16.1004 53.637 13.6547 47.0027L5.50101 24.8613C0.621782 11.6212 -1.82393 5.00315 1.58869 1.59053C5.0013 -1.82208 11.6234 0.615501 24.8676 5.49879L47.009 13.6484C53.6432 16.0941 56.9624 17.317 57.5556 20.0065C58.1487 22.6959 55.6461 25.1944 50.641 30.1955L45.7577 35.0829L61.7563 51.0816C63.4139 52.7391 64.2427 53.5679 64.6245 54.4942C65.1324 55.7251 65.1324 57.1064 64.6245 58.3415C64.2427 59.2637 63.4139 60.0925 61.7563 61.75C60.0988 63.4076 59.27 64.2364 58.3437 64.6183C57.1118 65.1273 55.7283 65.1273 54.4964 64.6183C53.5742 64.2364 52.7495 63.4076 51.0878 61.75Z" fill="#026BA9"/>
</svg>

<?xml version="1.0" encoding="utf-8"?>
<!-- Generator: Adobe Illustrator 27.4.0, SVG Export Plug-In . SVG Version: 6.00 Build 0)  -->
<svg version="1.1" id="Layer_1" xmlns="http://www.w3.org/2000/svg" xmlns:xlink="http://www.w3.org/1999/xlink" x="0px" y="0px"
	 viewBox="0 0 65 65" style="enable-background:new 0 0 65 65;" xml:space="preserve">
<style type="text/css">
	.st0{fill:#026BA9;}
</style>
<path class="st0" d="M51.1,61.8l-16-16l-4.9,4.9c-5,5-7.5,7.5-10.2,6.9c-2.7-0.6-3.9-3.9-6.4-10.5L5.5,24.9C0.6,11.6-1.8,5,1.6,1.6
	c3.4-3.4,10-1,23.3,3.9L47,13.6c6.6,2.4,10,3.7,10.5,6.4c0.6,2.7-1.9,5.2-6.9,10.2l-4.9,4.9l16,16c1.7,1.7,2.5,2.5,2.9,3.4
	c0.5,1.2,0.5,2.6,0,3.8c-0.4,0.9-1.2,1.8-2.9,3.4c-1.7,1.7-2.5,2.5-3.4,2.9c-1.2,0.5-2.6,0.5-3.8,0C53.6,64.2,52.7,63.4,51.1,61.8z"
	/>
</svg>
